src/static/logos/cloudera.svg

<?xml version="1.0" encoding="UTF-8" standalone="no"?>
<svg width="512px" height="100px" viewBox="0 0 512 100" version="1.1" xmlns="http://www.w3.org/2000/svg" xmlns:xlink="http://www.w3.org/1999/xlink" preserveAspectRatio="xMidYMid">
    <g>
        <path d="M441.708416,22.5512843 C436.672055,22.5512843 431.775592,23.216864 427.019028,24.5395449 C424.776406,25.1669704 422.673683,25.9682098 420.693901,26.9305448 C420.312358,26.3370342 419.858746,25.7774385 419.320348,25.2517576 C417.455028,23.4500289 415.216645,22.5512843 412.605199,22.5512843 L402.532475,22.5512843 L402.532475,98.8682726 L422.114087,98.8682726 L422.114087,59.2471987 C422.114087,51.5400392 423.41981,48.5385712 426.035496,45.8720127 C428.646943,43.2224117 432.657379,41.8954915 438.071044,41.8954915 L446.520092,41.8954915 L446.520092,22.5512843 L441.708416,22.5512843 Z M84.1627749,0 L74.0858123,0 L74.0858123,89.4802062 C74.0858123,92.138286 75.0227112,94.3597115 76.8880303,96.1656796 C78.7533495,97.9674083 80.9917324,98.8703923 83.6031792,98.8703923 L93.6759025,98.8703923 L93.6759025,9.38594668 C93.6759025,6.73634565 92.7432429,4.51068079 90.8821631,2.70047337 C89.0126046,0.90298403 86.7742217,0 84.1627749,0 Z M135.446333,83.3755255 C147.091859,83.3755255 150.775864,70.9584352 150.775864,60.4490577 C150.775864,49.9439195 147.091859,37.3657335 135.446333,37.3657335 C123.796567,37.3657335 120.260939,49.9439195 120.260939,60.4490577 C120.260939,70.9584352 123.796567,83.3755255 135.446333,83.3755255 Z M135.46753,20.7008029 C157.558843,20.7008029 169.806359,35.5088931 169.806359,60.2031747 C169.806359,84.7957116 157.558843,99.5614082 135.46753,99.5614082 C112.939562,99.5614082 101.247402,84.7957116 101.247402,60.2031747 C101.247402,35.5088931 112.939562,20.7008029 135.46753,20.7008029 Z M34.194691,83.3755255 C22.5491646,83.3755255 19.0092976,70.9584352 19.0092976,60.4490577 C19.0092976,49.9439195 22.5491646,37.3657335 34.194691,37.3657335 C40.2442601,37.3657335 44.1317547,40.7784197 46.4846004,45.5095473 L66.8335363,45.5095473 C62.7467917,29.7560794 51.4912865,20.7008029 34.2158878,20.7008029 C11.6879201,20.7008029 0,35.5088931 0,60.2031747 C0,84.7957116 11.6879201,99.5614082 34.2158878,99.5614082 C51.4912865,99.5614082 62.7255949,90.5146105 66.8081002,74.8162543 L53.4625897,74.8162543 C53.4625897,74.8162543 49.8718504,74.9137596 47.8496749,76.8553873 C44.3310047,80.2341585 41.4651962,83.3755255 34.194691,83.3755255 Z M239.496377,25.3149241 C237.724324,23.4156901 235.439308,22.4703125 232.63709,22.4703125 L222.844165,22.4703125 L222.844165,70.2903118 C222.844165,74.8433862 221.491808,78.1628064 218.787095,80.2485723 C216.082383,82.3343382 213.021564,83.3772212 209.65975,83.3772212 C206.306415,83.3772212 203.241356,82.3343382 200.536644,80.2485723 C197.831931,78.1628064 196.475335,74.8433862 196.475335,70.2903118 L196.475335,32.1402964 C196.475335,29.486456 195.593548,27.2141581 193.817255,25.3149241 C192.049442,23.4156901 189.764426,22.4703125 186.962208,22.4703125 L177.169282,22.4703125 L177.169282,66.8479502 C177.169282,80.3164021 180.895681,88.6509871 187.521803,93.3058062 C194.130968,97.9436678 201.456585,99.5588646 209.65975,99.5588646 C217.867154,99.5588646 225.19701,97.9436678 231.801936,93.3058062 C238.428058,88.6509871 242.154457,80.3164021 242.154457,66.8479502 L242.154457,32.1402964 C242.154457,29.486456 241.27267,27.2141581 239.496377,25.3149241 Z M316.816398,2.70216911 C314.951079,0.904679775 312.708457,0.00169574466 310.10125,0.00169574466 L300.278649,0.00169574466 L300.278649,28.2951954 C297.302617,25.501456 291.024122,20.7024987 281.519473,20.7024987 C261.522404,20.7024987 249.961665,35.5063495 249.961665,60.2006311 C249.961665,84.7974074 261.836117,99.5588646 284.724431,99.5588646 C307.074345,99.5588646 319.508393,84.9161095 319.605898,60.5101045 L319.614377,60.5101045 L319.614377,9.38764243 C319.614377,6.73380204 318.677478,4.51237653 316.816398,2.70216911 Z M284.703234,83.3772212 C272.871176,83.3772212 269.271958,70.9558916 269.271958,60.4507534 C269.271958,49.9413759 272.871176,37.3674293 284.703234,37.3674293 C296.463223,37.3674293 300.232016,49.7929983 300.278649,60.2599822 L300.278649,60.5101045 C300.265931,71.0025246 296.514095,83.3772212 284.703234,83.3772212 Z M395.317082,55.758628 C395.317082,57.3865428 394.977933,58.8745588 394.308114,60.2184364 C393.884178,61.0620694 393.341539,61.8505907 392.654763,62.5840002 C390.87847,64.4789949 388.69096,65.4286119 386.079513,65.4286119 L346.293104,65.4286119 C346.797588,74.5135639 351.354902,83.3780691 361.198699,83.3780691 C368.464965,83.3780691 371.326534,80.2324627 374.853683,76.8579309 C376.875859,74.9205426 380.462359,74.8145586 380.462359,74.8145586 L393.812109,74.8145586 C389.721125,90.5129147 378.491056,99.5597125 361.211417,99.5597125 C338.687689,99.5597125 326.99553,84.7982552 326.99553,60.2057183 C326.99553,35.5071974 338.687689,20.7033465 361.211417,20.7033465 C378.491056,20.7033465 389.7508,29.758623 393.833305,45.5120909 C394.570954,48.3312664 395.041523,51.3708887 395.304364,54.5970429 L395.317082,55.758628 Z M361.198699,37.3682772 C353.084561,37.3682772 347.709051,43.4687186 347.124019,50.718027 L375.370885,50.718027 C375.324252,43.4687186 369.105109,37.3682772 361.198699,37.3682772 Z M512,41.8408037 C512,35.0790219 509.295287,29.8179741 503.885862,26.0576603 C498.662968,22.4923571 490.824389,20.7033465 480.378601,20.7033465 C471.047767,20.7033465 463.866288,22.865421 458.829926,27.1853305 C454.35316,30.9414049 451.63149,36.0710325 450.885363,41.8959154 L469.636059,41.8959154 C470.568719,39.5303516 472.166958,38.0847293 474.227288,37.3343623 C476.27066,36.5839953 478.606548,36.2024527 481.222234,36.2024527 C484.478064,36.2024527 486.784277,36.6263889 489.192234,37.4742612 C492.036846,38.4747505 493.529101,40.1492984 493.529101,42.9684739 C493.529101,45.9868994 489.433878,48.8060749 481.222234,49.8913515 C471.353001,51.1928355 463.561054,52.2738727 456.464362,57.5730748 C451.907049,60.9730428 449.037001,67.2091438 449.037001,75.0985958 C449.037001,83.5561223 451.623011,89.5209041 456.591543,93.2812179 C461.021676,96.634553 468.215873,99.5003614 479.865639,99.5003614 C490.311426,99.5003614 498.145766,97.1814306 503.36866,93.6118881 C508.778085,89.8558137 511.821947,85.5231861 512,77.6082979 L512,41.8408037 Z M490.964288,78.9479362 C487.975538,81.8985319 483.871835,83.3738297 478.648942,83.3738297 C477.025266,83.3738297 471.882921,83.0050053 469.746282,80.9192393 C468.186197,79.4015479 467.228102,77.8457021 467.228102,75.0816383 C467.228102,73.0509841 467.940314,71.1263139 469.182447,69.7866757 C471.938032,66.8191225 474.969176,66.3994257 481.489314,64.9453247 C485.809224,63.9787502 491.108426,62.3635534 493.834335,60.8119471 L493.834335,66.5562821 C493.834335,71.7240639 493.948798,76.0015798 490.964288,78.9479362 L490.964288,78.9479362 Z" fill="#004E6F"></path>
    </g>
</svg>

<svg width="512" height="100" xmlns="http://www.w3.org/2000/svg" preserveAspectRatio="xMidYMid"><path d="M441.708 22.551c-5.036 0-9.932.666-14.689 1.989a37.59 37.59 0 00-6.325 2.39 9.57 9.57 0 00-1.374-1.678c-1.865-1.802-4.103-2.7-6.715-2.7h-10.073v76.316h19.582v-39.62c0-7.708 1.306-10.71 3.921-13.376 2.612-2.65 6.622-3.977 12.036-3.977h8.45V22.551h-4.813zM84.163 0H74.086v89.48c0 2.658.937 4.88 2.802 6.686 1.865 1.801 4.104 2.704 6.715 2.704h10.073V9.386c0-2.65-.933-4.875-2.794-6.686C89.012.903 86.774 0 84.162 0zm51.283 83.376c11.646 0 15.33-12.418 15.33-22.927 0-10.505-3.684-23.083-15.33-23.083-11.65 0-15.185 12.578-15.185 23.083 0 10.51 3.536 22.927 15.185 22.927zm.022-62.675c22.09 0 34.338 14.808 34.338 39.502 0 24.593-12.247 39.358-34.338 39.358-22.528 0-34.22-14.765-34.22-39.358 0-24.694 11.692-39.502 34.22-39.502zM34.195 83.376c-11.646 0-15.186-12.418-15.186-22.927 0-10.505 3.54-23.083 15.186-23.083 6.05 0 9.937 3.412 12.29 8.144h20.349C62.747 29.756 51.49 20.7 34.216 20.7 11.688 20.7 0 35.51 0 60.204c0 24.593 11.688 39.358 34.216 39.358 17.275 0 28.51-9.046 32.592-24.745H53.463s-3.591.098-5.613 2.04c-3.519 3.378-6.385 6.52-13.655 6.52zm205.301-58.061c-1.772-1.9-4.057-2.845-6.859-2.845h-9.793v47.82c0 4.553-1.352 7.873-4.057 9.959-2.705 2.085-5.765 3.128-9.127 3.128-3.354 0-6.419-1.043-9.123-3.128-2.705-2.086-4.062-5.406-4.062-9.959V32.14c0-2.654-.881-4.926-2.658-6.825-1.768-1.9-4.053-2.845-6.855-2.845h-9.793v44.378c0 13.468 3.727 21.803 10.353 26.458 6.609 4.638 13.935 6.253 22.138 6.253 8.207 0 15.537-1.615 22.142-6.253 6.626-4.655 10.352-12.99 10.352-26.458V32.14c0-2.654-.881-4.926-2.658-6.825zm77.32-22.613c-1.865-1.797-4.108-2.7-6.715-2.7h-9.822v28.293c-2.976-2.794-9.255-7.593-18.76-7.593-19.997 0-31.557 14.804-31.557 39.499 0 24.596 11.874 39.358 34.762 39.358 22.35 0 34.784-14.643 34.882-39.049h.008V9.388c0-2.654-.937-4.876-2.798-6.686zm-32.113 80.675c-11.832 0-15.431-12.421-15.431-22.926 0-10.51 3.6-23.084 15.431-23.084 11.76 0 15.529 12.426 15.576 22.893v.25c-.013 10.493-3.765 22.867-15.576 22.867zM395.317 55.76c0 1.628-.34 3.116-1.009 4.46a10.016 10.016 0 01-1.653 2.365c-1.777 1.895-3.964 2.845-6.575 2.845h-39.787c.505 9.085 5.062 17.95 14.906 17.95 7.266 0 10.128-3.147 13.655-6.521 2.022-1.937 5.608-2.043 5.608-2.043h13.35c-4.09 15.698-15.32 24.745-32.6 24.745-22.524 0-34.216-14.762-34.216-39.354 0-24.699 11.692-39.503 34.215-39.503 17.28 0 28.54 9.056 32.622 24.81.738 2.818 1.209 5.858 1.471 9.084l.013 1.162zM361.2 37.369c-8.114 0-13.49 6.1-14.075 13.349h28.247c-.047-7.25-6.266-13.35-14.172-13.35zM512 41.84c0-6.762-2.705-12.023-8.114-15.783-5.223-3.566-13.062-5.355-23.507-5.355-9.331 0-16.513 2.162-21.55 6.482-4.476 3.756-7.198 8.886-7.944 14.71h18.751c.933-2.365 2.531-3.81 4.591-4.56 2.044-.751 4.38-1.133 6.995-1.133 3.256 0 5.562.424 7.97 1.272 2.845 1 4.337 2.675 4.337 5.494 0 3.019-4.095 5.838-12.307 6.923-9.869 1.302-17.66 2.383-24.758 7.682-4.557 3.4-7.427 9.636-7.427 17.526 0 8.457 2.586 14.422 7.555 18.182 4.43 3.354 11.624 6.22 23.274 6.22 10.445 0 18.28-2.32 23.503-5.89 5.41-3.755 8.453-8.088 8.631-16.003V41.841zm-21.036 37.107c-2.988 2.95-7.092 4.426-12.315 4.426-1.624 0-6.766-.369-8.903-2.455-1.56-1.517-2.518-3.073-2.518-5.837 0-2.031.712-3.956 1.954-5.295 2.756-2.968 5.787-3.388 12.307-4.842 4.32-.966 9.62-2.581 12.345-4.133v5.744c0 5.168.115 9.446-2.87 12.392z" fill="#004E6F"/></svg>
